storage/app/icons/phosphoricons/duotone/desktop-tower-duotone.svg

<svg xmlns="http://www.w3.org/2000/svg" fill="currentColor" viewBox="0 0 256 256"><path d="M240 48v160a8 8 0 0 1-8 8h-80a8 8 0 0 1-8-8V48a8 8 0 0 1 8-8h80a8 8 0 0 1 8 8" opacity=".2"/><path d="M216 72a8 8 0 0 1-8 8h-32a8 8 0 0 1 0-16h32a8 8 0 0 1 8 8m-8 24h-32a8 8 0 0 0 0 16h32a8 8 0 0 0 0-16m40-48v160a16 16 0 0 1-16 16h-80a16 16 0 0 1-16-16v-16H96v16h16a8 8 0 0 1 0 16H64a8 8 0 0 1 0-16h16v-16H32a24 24 0 0 1-24-24V96a24 24 0 0 1 24-24h104V48a16 16 0 0 1 16-16h80a16 16 0 0 1 16 16M136 176V88H32a8 8 0 0 0-8 8v72a8 8 0 0 0 8 8Zm96 32V48h-80v160zm-40-40a12 12 0 1 0 12 12 12 12 0 0 0-12-12"/></svg>

<svg xmlns="http://www.w3.org/2000/svg" viewBox="0 0 256 256" fill="currentColor"><path d="M240,48V208a8,8,0,0,1-8,8H152a8,8,0,0,1-8-8V48a8,8,0,0,1,8-8h80A8,8,0,0,1,240,48Z" opacity="0.2"/><path d="M216,72a8,8,0,0,1-8,8H176a8,8,0,0,1,0-16h32A8,8,0,0,1,216,72Zm-8,24H176a8,8,0,0,0,0,16h32a8,8,0,0,0,0-16Zm40-48V208a16,16,0,0,1-16,16H152a16,16,0,0,1-16-16V192H96v16h16a8,8,0,0,1,0,16H64a8,8,0,0,1,0-16H80V192H32A24,24,0,0,1,8,168V96A24,24,0,0,1,32,72H136V48a16,16,0,0,1,16-16h80A16,16,0,0,1,248,48ZM136,176V88H32a8,8,0,0,0-8,8v72a8,8,0,0,0,8,8Zm96,32V48H152V208h80Zm-40-40a12,12,0,1,0,12,12A12,12,0,0,0,192,168Z"/></svg>
